packages/swarm-icons/src/icons/line/Globe.svg

<svg xmlns="http://www.w3.org/2000/svg" width="24" height="24" viewBox="0 0 24 24">
  <path fill="#757575" d="M20.9863458,12.5 L15.9958836,12.5 C15.9765807,13.6662006 15.8896708,14.7800491 15.7398419,15.8079208 C17.0836617,16.0402264 18.2818239,16.3974704 19.233248,16.8573 C19.3261834,16.9022164 19.3989309,16.9721151 19.4473217,17.055029 C20.3395394,15.7431213 20.894181,14.1831448 20.9863458,12.5 Z M20.9863458,11.5 C20.8953096,9.83746642 20.3530539,8.29510301 19.4799469,6.99327784 C19.4440121,7.02850808 19.4021054,7.05886841 19.3547645,7.08272837 C18.385418,7.57128276 17.1421715,7.94964671 15.7398397,8.19206405 C15.8896699,9.2199398 15.9765805,10.3337934 15.9958812,11.4999995 L20.9863458,11.5 Z M3.01365419,12.5 C3.10489078,14.1661927 3.64933521,15.7116857 4.52582288,17.0153144 C4.5665559,16.970117 4.61628188,16.9316459 4.67401943,16.9028372 C5.6392946,16.4212041 6.87181758,16.0479318 8.26015974,15.8079323 C8.11032987,14.7800575 8.02341943,13.6662053 8.00411879,12.5000005 L3.01365419,12.5 Z M3.01365419,11.5 L8.00411752,11.5 C8.02341941,10.3337962 8.11032965,9.21994517 8.26015919,8.19207148 C6.88624644,7.95456565 5.66482076,7.58651738 4.70388599,7.11198801 C4.63512362,7.07803174 4.57762172,7.03038021 4.5330482,6.97395575 C3.6523276,8.27983048 3.10514122,9.8292336 3.01365419,11.5 Z M14.9954514,12.5 L9.0045486,12.5 C9.02500893,13.6208069 9.11382414,14.686998 9.25870364,15.6616934 C10.1336352,15.5557028 11.0554744,15.5 12,15.5 C12.9444019,15.5 13.8662501,15.5556817 14.7412979,15.6616832 C14.8861765,14.6869906 14.9749911,13.6208029 14.9954486,12.5 Z M14.9954486,11.5 C14.974991,10.3791919 14.8861757,9.31299965 14.7412959,8.33830342 C13.8664008,8.44429065 12.9445648,8.5 12,8.5 C11.0555146,8.5 10.1336724,8.44430396 9.25870315,8.33830988 C9.11382394,9.31300436 9.02500891,10.3791944 9.0045514,11.5 L14.9954514,11.5 Z M18.889393,17.7913677 C18.8585007,17.78327 18.8279372,17.7720795 18.7980988,17.7576584 C17.9334218,17.3397543 16.8251859,17.0103179 15.571636,16.7936215 C15.2425171,18.463312 14.7306557,19.8440615 14.060149,20.7631166 C15.9791161,20.3137273 17.6617152,19.2502932 18.889393,17.7913677 Z M5.11724106,17.7992423 C6.34434308,19.2541197 8.02433815,20.3145362 9.93985104,20.7631166 C9.26934653,19.8440645 8.7574862,18.463321 8.42836717,16.7936378 C7.13420301,17.0173366 5.99548464,17.3610487 5.12048799,17.7976365 C5.11940669,17.7981761 5.11832437,17.7987113 5.11724106,17.7992423 Z M14.5694264,16.6482795 C13.7510936,16.5513443 12.8868554,16.5 12,16.5 C11.1129995,16.5 10.2487594,16.5513798 9.43057775,16.6483001 C9.95595878,19.2564122 10.9101066,21 12,21 C13.0898963,21 14.0440462,19.256403 14.5694264,16.6482795 Z M18.8827502,6.20074739 C17.655649,4.74587531 15.9756573,3.68546276 14.060149,3.23688343 C14.7306527,4.15593449 15.2425127,5.53667597 15.5716317,7.20635671 C16.8676785,6.98233803 18.0076509,6.63800433 18.8827502,6.20074739 Z M5.11648276,6.2016569 C5.1266172,6.20586282 5.13668181,6.21042733 5.14666156,6.21535554 C6.0184677,6.64587135 7.14735479,6.98493657 8.42836609,7.20636775 C8.75748507,5.53668206 9.26934579,4.15593652 9.93985104,3.23688343 C8.02394356,3.68555624 6.34365093,4.74631726 5.11648276,6.2016569 Z M14.5694209,7.35169322 C14.0440396,4.74358484 13.0898925,3 12,3 C10.9101056,3 9.95595712,4.74359088 9.43057638,7.35170676 C10.248807,7.44863177 11.1130467,7.5 12,7.5 C12.8870463,7.5 13.7512868,7.44860898 14.5694209,7.35169322 Z M12,22 C6.4771525,22 2,17.5228475 2,12 C2,6.4771525 6.4771525,2 12,2 C17.5228475,2 22,6.4771525 22,12 C22,17.5228475 17.5228475,22 12,22 Z"/>
</svg>

<svg xmlns="http://www.w3.org/2000/svg" width="24" height="24"><path fill="#757575" d="M20.986 12.5h-4.99a26.063 26.063 0 01-.256 3.308c1.344.232 2.542.59 3.493 1.05a.498.498 0 01.214.197 8.951 8.951 0 001.54-4.555zm0-1a8.95 8.95 0 00-1.506-4.507.5.5 0 01-.125.09c-.97.488-2.213.867-3.615 1.11.15 1.027.237 2.14.256 3.307h4.99zm-17.972 1a8.95 8.95 0 001.512 4.515.499.499 0 01.148-.112c.965-.482 2.198-.855 3.586-1.095a26.062 26.062 0 01-.256-3.308h-4.99zm0-1h4.99c.02-1.166.106-2.28.256-3.308-1.374-.237-2.595-.605-3.556-1.08a.498.498 0 01-.171-.138 8.95 8.95 0 00-1.52 4.526zm11.981 1h-5.99c.02 1.12.109 2.187.254 3.162A22.885 22.885 0 0112 15.5c.944 0 1.866.056 2.741.162.145-.975.234-2.041.254-3.162zm0-1c-.02-1.12-.109-2.187-.254-3.162-.875.106-1.796.162-2.741.162-.944 0-1.866-.056-2.741-.162-.145.975-.234 2.041-.254 3.162h5.99zm3.894 6.291a.502.502 0 01-.09-.033c-.866-.418-1.974-.748-3.227-.964-.33 1.67-.841 3.05-1.512 3.97a8.999 8.999 0 004.83-2.973zM5.117 17.8a8.998 8.998 0 004.823 2.964c-.67-.919-1.183-2.3-1.512-3.97-1.294.224-2.433.568-3.308 1.005a.509.509 0 01-.003.001zm9.452-1.15A21.933 21.933 0 0012 16.5c-.887 0-1.751.051-2.57.148C9.957 19.256 10.91 21 12 21c1.09 0 2.044-1.744 2.57-4.352zM18.883 6.2a8.998 8.998 0 00-4.823-2.964c.67.919 1.183 2.3 1.512 3.97 1.296-.225 2.436-.569 3.31-1.006zm-13.767 0l.03.014c.872.43 2.001.77 3.282.991.33-1.67.841-3.05 1.512-3.97a8.998 8.998 0 00-4.824 2.966zm9.453 1.15C14.044 4.745 13.09 3 12 3c-1.09 0-2.044 1.744-2.57 4.352.819.097 1.683.148 2.57.148.887 0 1.751-.051 2.57-.148zM12 22C6.477 22 2 17.523 2 12S6.477 2 12 2s10 4.477 10 10-4.477 10-10 10z"/></svg>
